resources/icons/16px/minimize.svg

<?xml version="1.0" encoding="utf-8"?>
<!-- Generator: Adobe Illustrator 17.1.0, SVG Export Plug-In . SVG Version: 6.00 Build 0)  -->
<!DOCTYPE svg PUBLIC "-//W3C//DTD SVG 1.1//EN" "http://www.w3.org/Graphics/SVG/1.1/DTD/svg11.dtd">
<svg version="1.1" id="Layer_1" xmlns="http://www.w3.org/2000/svg" xmlns:xlink="http://www.w3.org/1999/xlink" x="0px" y="0px"
	 viewBox="0 0 16 16" enable-background="new 0 0 16 16" xml:space="preserve">
<g id="minimize_1_">
	<g>
		<path fill-rule="evenodd" clip-rule="evenodd" d="M15.99,0.99c0-0.55-0.45-1-1-1c-0.28,0-0.53,0.11-0.71,0.29l-3.29,3.29V1.99
			c0-0.55-0.45-1-1-1s-1,0.45-1,1v4c0,0.55,0.45,1,1,1h4c0.55,0,1-0.45,1-1s-0.45-1-1-1h-1.59L15.7,1.7
			C15.88,1.52,15.99,1.27,15.99,0.99z M5.99,8.99h-4c-0.55,0-1,0.45-1,1s0.45,1,1,1h1.59l-3.29,3.29c-0.18,0.18-0.29,0.43-0.29,0.71
			c0,0.55,0.45,1,1,1c0.28,0,0.53-0.11,0.71-0.29l3.29-3.29v1.59c0,0.55,0.45,1,1,1s1-0.45,1-1v-4C6.99,9.44,6.54,8.99,5.99,8.99z"
			/>
	</g>
</g>
</svg>

<svg xmlns="http://www.w3.org/2000/svg" viewBox="0 0 16 16">
  <path d="M15.99.99a1.003 1.003 0 0 0-1.71-.71l-3.29 3.29V1.99c0-.55-.45-1-1-1s-1 .45-1 1v4c0 .55.45 1 1 1h4c.55 0 1-.45 1-1s-.45-1-1-1H12.4l3.3-3.29c.18-.18.29-.43.29-.71m-10 8h-4c-.55 0-1 .45-1 1s.45 1 1 1h1.59L.29 14.28a1.003 1.003 0 0 0 1.42 1.42L5 12.41V14c0 .55.45 1 1 1s1-.45 1-1v-4a1.02 1.02 0 0 0-1.01-1.01"/>
</svg>
